Komodo/apps/scalable/openbravo-erp.svg

<?xml version="1.0" encoding="UTF-8" standalone="no"?>
<!-- Created with Inkscape (http://www.inkscape.org/) -->

<svg
   xmlns:dc="http://purl.org/dc/elements/1.1/"
   xmlns:cc="http://creativecommons.org/ns#"
   xmlns:rdf="http://www.w3.org/1999/02/22-rdf-syntax-ns#"
   xmlns:svg="http://www.w3.org/2000/svg"
   xmlns="http://www.w3.org/2000/svg"
   xmlns:xlink="http://www.w3.org/1999/xlink"
   xmlns:sodipodi="http://sodipodi.sourceforge.net/DTD/sodipodi-0.dtd"
   xmlns:inkscape="http://www.inkscape.org/namespaces/inkscape"
   width="96"
   height="96"
   id="svg11037"
   version="1.1"
   inkscape:version="0.48.3.1 r9886"
   sodipodi:docname="openbravo-erp.svg">
  <defs
     id="defs11039">
    <linearGradient
       y2="1046.1001"
       x2="47.999954"
       y1="962.62189"
       x1="47.999954"
       gradientTransform="matrix(1.15,0,0,1.15,-7.1999462,-150.65291)"
       gradientUnits="userSpaceOnUse"
       id="linearGradient3886"
       xlink:href="#linearGradient3795"
       inkscape:collect="always" />
    <linearGradient
       id="linearGradient3795">
      <stop
         style="stop-color:#13a6fd;stop-opacity:1;"
         offset="0"
         id="stop3797" />
      <stop
         style="stop-color:#2975b6;stop-opacity:1;"
         offset="1"
         id="stop3799" />
    </linearGradient>
    <linearGradient
       y2="1046.1001"
       x2="47.999954"
       y1="962.62189"
       x1="47.999954"
       gradientTransform="matrix(1.15,0,0,1.15,-7.1999462,-150.65292)"
       gradientUnits="userSpaceOnUse"
       id="linearGradient11642"
       xlink:href="#linearGradient3700"
       inkscape:collect="always" />
    <linearGradient
       x1="48"
       y1="90"
       x2="48"
       y2="5.9877172"
       id="linearGradient3617"
       xlink:href="#linearGradient3700"
       gradientUnits="userSpaceOnUse" />
    <linearGradient
       id="linearGradient3700">
      <stop
         id="stop3702"
         style="stop-color:#c8c8c8;stop-opacity:1"
         offset="0" />
      <stop
         id="stop3704"
         style="stop-color:#f0f0f0;stop-opacity:1"
         offset="1" />
    </linearGradient>
    <linearGradient
       gradientTransform="translate(-115.66247,952.36218)"
       y2="5.9877172"
       x2="48"
       y1="90"
       x1="48"
       gradientUnits="userSpaceOnUse"
       id="linearGradient3056"
       xlink:href="#linearGradient3700"
       inkscape:collect="always" />
    <radialGradient
       cx="48"
       cy="48"
       r="32"
       fx="48"
       fy="48"
       id="radialGradient4024"
       xlink:href="#linearGradient4018"
       gradientUnits="userSpaceOnUse" />
    <linearGradient
       id="linearGradient4018">
      <stop
         id="stop4020"
         style="stop-color:#ffffff;stop-opacity:1"
         offset="0" />
      <stop
         id="stop4026"
         style="stop-color:#ffffff;stop-opacity:0.49803922"
         offset="0.69999999" />
      <stop
         id="stop4022"
         style="stop-color:#ffffff;stop-opacity:0"
         offset="1" />
    </linearGradient>
    <linearGradient
       x1="40"
       y1="64"
       x2="88"
       y2="40"
       id="linearGradient3979"
       xlink:href="#linearGradient3940"
       gradientUnits="userSpaceOnUse"
       gradientTransform="matrix(0,-1,1,0,-8,104)" />
    <linearGradient
       id="linearGradient3940">
      <stop
         id="stop3942"
         style="stop-color:#34870c;stop-opacity:1"
         offset="0" />
      <stop
         id="stop3944"
         style="stop-color:#a0ce72;stop-opacity:1"
         offset="1" />
    </linearGradient>
    <clipPath
       clipPathUnits="userSpaceOnUse"
       id="clipPath3009">
      <path
         id="path3011"
         d="m -2,956.36218 -96,0 0,33.5624 96,25.68742 0,-59.24982 z"
         style="opacity:0.15;fill:#ffffff;fill-opacity:1;stroke:none"
         inkscape:connector-curvature="0" />
    </clipPath>
  </defs>
  <sodipodi:namedview
     id="base"
     pagecolor="#ffffff"
     bordercolor="#666666"
     borderopacity="1.0"
     inkscape:pageopacity="0.0"
     inkscape:pageshadow="2"
     inkscape:zoom="3.959798"
     inkscape:cx="33.538031"
     inkscape:cy="59.964634"
     inkscape:document-units="px"
     inkscape:current-layer="layer1"
     showgrid="false"
     inkscape:window-width="1280"
     inkscape:window-height="750"
     inkscape:window-x="0"
     inkscape:window-y="22"
     inkscape:window-maximized="1"
     showguides="true"
     inkscape:guide-bbox="true">
    <sodipodi:guide
       orientation="0,1"
       position="-24.748737,0"
       id="guide11064" />
    <sodipodi:guide
       orientation="0,1"
       position="-23.233509,96"
       id="guide11066" />
    <sodipodi:guide
       orientation="1,0"
       position="0,54.800776"
       id="guide11068" />
    <sodipodi:guide
       orientation="1,0"
       position="96,51.012704"
       id="guide11070" />
    <sodipodi:guide
       orientation="0,1"
       position="-18.94036,48"
       id="guide11072" />
    <sodipodi:guide
       orientation="1,0"
       position="48,79.296975"
       id="guide11074" />
    <sodipodi:guide
       orientation="1,0"
       position="2,75.508903"
       id="guide11076" />
    <sodipodi:guide
       orientation="0,1"
       position="-77.27667,2"
       id="guide11078" />
    <sodipodi:guide
       orientation="1,0"
       position="94,77.781746"
       id="guide11080" />
    <sodipodi:guide
       orientation="0,1"
       position="-65.912454,94"
       id="guide11082" />
  </sodipodi:namedview>
  <metadata
     id="metadata11042">
    <rdf:RDF>
      <cc:Work
         rdf:about="">
        <dc:format>image/svg+xml</dc:format>
        <dc:type
           rdf:resource="http://purl.org/dc/dcmitype/StillImage" />
        <dc:title />
      </cc:Work>
    </rdf:RDF>
  </metadata>
  <g
     inkscape:label="Layer 1"
     inkscape:groupmode="layer"
     id="layer1"
     transform="translate(0,-956.36218)">
    <rect
       x="2"
       y="958.36218"
       width="92"
       height="92"
       style="fill:url(#linearGradient11642);fill-opacity:1.0"
       id="rect3867"
       rx="25"
       ry="25" />
    <g
       transform="translate(-2.2222222e-7,956.36218)"
       id="g3096">
      <path
         inkscape:connector-curvature="0"
         style="color:#000000;fill:url(#radialGradient4024);fill-opacity:1;fill-rule:nonzero;stroke:none;stroke-width:3;marker:none;visibility:visible;display:inline;overflow:visible;enable-background:accumulate"
         id="path4016"
         d="m 80,48 a 32,32 0 1 1 -64,0 32,32 0 1 1 64,0 z" />
      <path
         style="color:#000000;fill:url(#linearGradient3979);fill-opacity:1;fill-rule:nonzero;stroke:none;stroke-width:3;marker:none;visibility:visible;display:inline;overflow:visible;enable-background:accumulate"
         id="path3938"
         inkscape:connector-curvature="0"
         d="m 48,16 c -3.489588,0 -6.855862,0.561149 -10,1.59375 L 38,48 c 0,5.522847 4.477153,10 10,10 5.522847,0 10,-4.477153 10,-10 C 58,42.477153 53.522847,38 48,38 L 48,28 C 59.045695,28 68,36.954305 68,48 68,59.045695 59.045695,68 48,68 36.954305,68 28,59.045695 28,48 L 28,23.03125 C 20.689718,28.895918 16,37.898815 16,48 16,65.673112 30.326888,80 48,80 65.673112,80 80,65.673112 80,48 80,30.326888 65.673112,16 48,16 z" />
      <path
         style="opacity:0.7;color:#000000;fill:#ffffff;fill-opacity:1;fill-rule:nonzero;stroke:none;stroke-width:3;marker:none;visibility:visible;display:inline;overflow:visible;enable-background:accumulate"
         id="path3982"
         inkscape:connector-curvature="0"
         d="m 48,28 0,1 c 10.87849,0 19.734559,8.685418 20,19.5 0.0041,-0.166223 0,-0.332795 0,-0.5 C 68,36.954305 59.045695,28 48,28 z m -10,20 0,1 c 0,5.522847 4.477153,10 10,10 5.522847,0 10,-4.477153 10,-10 0,-0.167378 -0.02312,-0.334638 -0.03125,-0.5 C 57.708657,53.790951 53.355469,58 48,58 42.477153,58 38,53.522847 38,48 z m 42,0.5 C 79.733293,65.942958 65.506444,80 48,80 30.535223,80 16.332288,66.010307 16,48.625 c -0.0015,0.125778 0,0.248875 0,0.375 0,17.673112 14.326888,32 32,32 17.673112,0 32,-14.326888 32,-32 0,-0.166668 0.0025,-0.333936 0,-0.5 z" />
      <path
         style="opacity:0.3;color:#000000;fill:#000000;fill-opacity:1;fill-rule:nonzero;stroke:none;stroke-width:3;marker:none;visibility:visible;display:inline;overflow:visible;enable-background:accumulate"
         id="path3991"
         inkscape:connector-curvature="0"
         d="m 48,15 c -3.489588,0 -6.855862,0.561149 -10,1.59375 l 0,1 C 41.144138,16.561149 44.510412,16 48,16 65.506444,16 79.733293,30.057042 80,47.5 80.002539,47.333936 80,47.166668 80,47 80,29.326888 65.673112,15 48,15 z M 28,22.03125 C 20.689718,27.895918 16,36.898815 16,47 c 0,0.208335 -0.004,0.417613 0,0.625 0.115332,-9.947662 4.780995,-18.802309 12,-24.59375 l 0,-1 z M 48,37 l 0,1 c 5.355469,0 9.708657,4.209049 9.96875,9.5 C 57.976879,47.334638 58,47.167378 58,47 58,41.477153 53.522847,37 48,37 z m -20,10 0,1 c 0,11.045695 8.954305,20 20,20 11.045695,0 20,-8.954305 20,-20 0,-0.167205 0.0041,-0.333777 0,-0.5 C 67.734559,58.314582 58.87849,67 48,67 36.954305,67 28,58.045695 28,47 z" />
      <path
         style="opacity:0.3;color:#000000;fill:#000000;fill-opacity:1;fill-rule:nonzero;stroke:none;stroke-width:3;marker:none;visibility:visible;display:inline;overflow:visible;enable-background:accumulate"
         id="path4000"
         inkscape:connector-curvature="0"
         d="m 48,16 c -3.489588,0 -6.855862,0.561149 -10,1.59375 l 0,1 C 41.144138,17.561149 44.510412,17 48,17 65.506444,17 79.733293,31.057042 80,48.5 80.002539,48.333936 80,48.166668 80,48 80,30.326888 65.673112,16 48,16 z M 28,23.03125 C 20.689718,28.895918 16,37.898815 16,48 c 0,0.208335 -0.004,0.417613 0,0.625 0.115332,-9.947662 4.780995,-18.802309 12,-24.59375 l 0,-1 z M 48,38 l 0,1 c 5.355469,0 9.708657,4.209049 9.96875,9.5 C 57.976879,48.334638 58,48.167378 58,48 58,42.477153 53.522847,38 48,38 z m -20,10 0,1 c 0,11.045695 8.954305,20 20,20 11.045695,0 20,-8.954305 20,-20 0,-0.167205 0.0041,-0.333777 0,-0.5 C 67.734559,59.314582 58.87849,68 48,68 36.954305,68 28,59.045695 28,48 z" />
      <path
         style="opacity:0.12000002;color:#000000;fill:#000000;fill-opacity:1;fill-rule:nonzero;stroke:none;stroke-width:3;marker:none;visibility:visible;display:inline;overflow:visible;enable-background:accumulate"
         id="path4009"
         inkscape:connector-curvature="0"
         d="m 48,16 c -3.489588,0 -6.855862,0.561149 -10,1.59375 L 38,48 c 0,5.522847 4.477153,10 10,10 5.522847,0 10,-4.477153 10,-10 C 58,42.477153 53.522847,38 48,38 L 48,28 C 59.045695,28 68,36.954305 68,48 68,59.045695 59.045695,68 48,68 36.954305,68 28,59.045695 28,48 L 28,23.03125 C 20.689718,28.895918 16,37.898815 16,48 16,65.673112 30.326888,80 48,80 65.673112,80 80,65.673112 80,48 80,30.326888 65.673112,16 48,16 z m 0,1.0625 C 65.101166,17.0625 78.9375,30.898834 78.9375,48 78.9375,65.101166 65.101166,78.9375 48,78.9375 30.898834,78.9375 17.0625,65.101166 17.0625,48 c 0,-8.898147 3.866381,-16.794259 9.875,-22.4375 l 0,22.4375 C 26.9375,59.617641 36.382359,69.0625 48,69.0625 59.617641,69.0625 69.0625,59.617641 69.0625,48 69.0625,36.382359 59.617641,26.9375 48,26.9375 A 1.0584033,1.0584033 0 0 0 46.9375,28 l 0,10 A 1.0584033,1.0584033 0 0 0 48,39.0625 c 4.9509,0 8.9375,3.9866 8.9375,8.9375 0,4.9509 -3.9866,8.9375 -8.9375,8.9375 -4.9509,0 -8.9375,-3.9866 -8.9375,-8.9375 l 0,-29.59375 C 41.8978,17.550189 44.883929,17.0625 48,17.0625 z" />
    </g>
    <rect
       ry="25"
       rx="25"
       id="rect3003"
       style="opacity:0.15;fill:#ffffff;fill-opacity:1"
       height="92"
       width="92"
       y="958.36218"
       x="-96"
       clip-path="url(#clipPath3009)"
       transform="translate(98,3.8281269e-7)" />
  </g>
</svg>

<?xml version="1.0" encoding="UTF-8" standalone="no"?>
<!-- Created with Inkscape (http://www.inkscape.org/) -->
<svg id="svg11037" xmlns:rdf="http://www.w3.org/1999/02/22-rdf-syntax-ns#" xmlns="http://www.w3.org/2000/svg" height="96" width="96" version="1.1" xmlns:cc="http://creativecommons.org/ns#" xmlns:xlink="http://www.w3.org/1999/xlink" xmlns:dc="http://purl.org/dc/elements/1.1/">
 <defs id="defs11039">
  <linearGradient id="linearGradient11642" y2="1046.1" gradientUnits="userSpaceOnUse" y1="962.62" gradientTransform="matrix(1.15 0 0 1.15 -7.1999 -150.65)" x2="48" x1="48">
   <stop id="stop3702" style="stop-color:#c8c8c8" offset="0"/>
   <stop id="stop3704" style="stop-color:#f0f0f0" offset="1"/>
  </linearGradient>
  <radialGradient id="radialGradient4024" gradientUnits="userSpaceOnUse" cy="48" cx="48" r="32">
   <stop id="stop4020" style="stop-color:#fff" offset="0"/>
   <stop id="stop4026" style="stop-color:#fff;stop-opacity:.49804" offset="0.7"/>
   <stop id="stop4022" style="stop-color:#fff;stop-opacity:0" offset="1"/>
  </radialGradient>
  <linearGradient id="linearGradient3979" y2="40" gradientUnits="userSpaceOnUse" x2="88" gradientTransform="matrix(0,-1,1,0,-8,104)" y1="64" x1="40">
   <stop id="stop3942" style="stop-color:#34870c" offset="0"/>
   <stop id="stop3944" style="stop-color:#a0ce72" offset="1"/>
  </linearGradient>
  <clipPath id="clipPath3009" clipPathUnits="userSpaceOnUse">
   <path id="path3011" style="opacity:.15;fill:#fff" d="m-2 956.36h-96v33.562l96 25.687v-59.25z"/>
  </clipPath>
 </defs>
 <metadata id="metadata11042">
  <rdf:RDF>
   <cc:Work rdf:about="">
    <dc:format>image/svg+xml</dc:format>
    <dc:type rdf:resource="http://purl.org/dc/dcmitype/StillImage"/>
    <dc:title/>
   </cc:Work>
  </rdf:RDF>
 </metadata>
 <g id="layer1" transform="translate(0 -956.36)">
  <rect id="rect3867" style="fill:url(#linearGradient11642)" rx="25" ry="25" height="92" width="92" y="958.36" x="2"/>
  <g id="g3096" transform="translate(-2.2222e-7 956.36)">
   <path id="path4016" d="m80 48a32 32 0 1 1 -64 0 32 32 0 1 1 64 0z" style="color:#000000;fill:url(#radialGradient4024)"/>
   <path id="path3938" d="m48 16c-3.4896 0-6.8559 0.56115-10 1.5938v30.406c0 5.5228 4.4772 10 10 10s10-4.4772 10-10c0-5.523-4.477-10-10-10v-10c11.046 0 20 8.954 20 20s-8.954 20-20 20-20-8.954-20-20v-24.969c-7.31 5.865-12 14.868-12 24.969 0 17.673 14.327 32 32 32s32-14.327 32-32-14.327-32-32-32z" style="color:#000000;fill:url(#linearGradient3979)"/>
   <path id="path3982" d="m48 28v1c10.878 0 19.735 8.6854 20 19.5 0.0041-0.16622 0-0.3328 0-0.5 0-11.046-8.954-20-20-20zm-10 20v1c0 5.5228 4.4772 10 10 10s10-4.4772 10-10c0-0.16738-0.02312-0.33464-0.03125-0.5-0.26 5.291-4.614 9.5-9.969 9.5-5.523 0-10-4.477-10-10zm42 0.5c-0.267 17.443-14.494 31.5-32 31.5-17.465 0-31.668-13.99-32-31.375-0.0015 0.12578 0 0.24888 0 0.375 0 17.673 14.327 32 32 32s32-14.327 32-32c0-0.16667 0.0025-0.33394 0-0.5z" style="opacity:.7;color:#000000;fill:#fff"/>
   <path id="path3991" d="m48 15c-3.4896 0-6.8559 0.56115-10 1.5938v1c3.144-1.033 6.51-1.594 10-1.594 17.506 0 31.733 14.057 32 31.5 0.003-0.166 0-0.333 0-0.5 0-17.673-14.327-32-32-32zm-20 7.031c-7.31 5.865-12 14.868-12 24.969 0 0.20834-0.004 0.41761 0 0.625 0.11533-9.9477 4.781-18.802 12-24.594v-1zm20 14.969v1c5.3555 0 9.7087 4.209 9.9688 9.5 0.008-0.165 0.031-0.333 0.031-0.5 0-5.523-4.477-10-10-10zm-20 10v1c0 11.046 8.9543 20 20 20s20-8.9543 20-20c0-0.1672 0.0041-0.33378 0-0.5-0.265 10.815-9.122 19.5-20 19.5-11.046 0-20-8.954-20-20z" style="opacity:.3;color:#000000"/>
   <path id="path4000" d="m48 16c-3.4896 0-6.8559 0.56115-10 1.5938v1c3.144-1.033 6.51-1.594 10-1.594 17.506 0 31.733 14.057 32 31.5 0.003-0.166 0-0.333 0-0.5 0-17.673-14.327-32-32-32zm-20 7.031c-7.31 5.865-12 14.868-12 24.969 0 0.20834-0.004 0.41761 0 0.625 0.11533-9.9477 4.781-18.802 12-24.594v-1zm20 14.969v1c5.3555 0 9.7087 4.209 9.9688 9.5 0.008-0.165 0.031-0.333 0.031-0.5 0-5.523-4.477-10-10-10zm-20 10v1c0 11.046 8.9543 20 20 20s20-8.9543 20-20c0-0.1672 0.0041-0.33378 0-0.5-0.265 10.815-9.122 19.5-20 19.5-11.046 0-20-8.954-20-20z" style="opacity:.3;color:#000000"/>
   <path id="path4009" d="m48 16c-3.4896 0-6.8559 0.56115-10 1.5938v30.406c0 5.5228 4.4772 10 10 10s10-4.4772 10-10c0-5.523-4.477-10-10-10v-10c11.046 0 20 8.954 20 20s-8.954 20-20 20-20-8.954-20-20v-24.969c-7.31 5.865-12 14.868-12 24.969 0 17.673 14.327 32 32 32s32-14.327 32-32-14.327-32-32-32zm0 1.0625c17.101 0 30.938 13.837 30.938 30.938s-13.837 30.938-30.938 30.938-30.938-13.837-30.938-30.938c0-8.8981 3.8664-16.794 9.875-22.438v22.438c0.001 11.618 9.445 21.062 21.063 21.062s21.062-9.444 21.062-21.062-9.444-21.062-21.062-21.062a1.0584 1.0584 0 0 0 -1.062 1.062v10a1.0584 1.0584 0 0 0 1.062 1.062c4.9509 0 8.9375 3.9866 8.9375 8.9375s-3.9866 8.9375-8.9375 8.9375-8.9375-3.9866-8.9375-8.9375v-29.594c2.836-0.856 5.822-1.344 8.938-1.344z" style="opacity:0.12;color:#000000"/>
  </g>
  <rect id="rect3003" style="opacity:.15;fill:#fff" transform="translate(98 3.8281e-7)" clip-path="url(#clipPath3009)" rx="25" ry="25" height="92" width="92" y="958.36" x="-96"/>
 </g>
</svg>
